papirus/16x16/apps/baka-mplayer.svg

<svg height="16" viewBox="0 0 16 16" width="16" xmlns="http://www.w3.org/2000/svg"><path d="m .64.1262931c-.64.6528-.64 3.7771428-.64 5.7554285 0 7.1811424 4.16 10.1182854 8 10.1182854 3.84 0 8-2.937657 8-10.1182854 0-1.9586857 0-5.1026285-.64-5.7554285-.64-.65279996-4.88 1.3733714-6.16 2.6789714h-2.4c-1.28-1.3056-5.52-3.33177136-6.16-2.6789714z" fill="#4d4d4d" fill-rule="evenodd"/><path d="m10 11.586006c0 .781-.8953333 1.414-2 1.414-1.1046667 0-2-.633-2-1.414 0-.78115 4-.78115 4 0z" fill="#fff"/><path d="m4.5 5.0000003a2.5 3 0 0 0 -2.5 3 2.5 3 0 0 0  2.5 2.9999997 2.5 3 0 0 0  2.5-2.9999997 2.5 3 0 0 0 -2.5-3zm0 1a1.5 2 0 0 1 1.5 2 1.5 2 0 0 1 -1.5 1.9999997 1.5 2 0 0 1 -1.5-1.9999997 1.5 2 0 0 1  1.5-2z" fill="#fff" fill-rule="evenodd"/><path d="m11.5 5.0000003a2.5 3 0 0 0 -2.5 3 2.5 3 0 0 0  2.5 2.9999997 2.5 3 0 0 0  2.5-2.9999997 2.5 3 0 0 0 -2.5-3zm0 1a1.5 2 0 0 1 1.5 2 1.5 2 0 0 1 -1.5 1.9999997 1.5 2 0 0 1 -1.5-1.9999997 1.5 2 0 0 1  1.5-2z" fill="#fff" fill-rule="evenodd"/></svg>

<?xml version="1.0" encoding="UTF-8" standalone="no"?>
<svg
   xmlns:dc="http://purl.org/dc/elements/1.1/"
   xmlns:cc="http://creativecommons.org/ns#"
   xmlns:rdf="http://www.w3.org/1999/02/22-rdf-syntax-ns#"
   xmlns:svg="http://www.w3.org/2000/svg"
   xmlns="http://www.w3.org/2000/svg"
   xmlns:sodipodi="http://sodipodi.sourceforge.net/DTD/sodipodi-0.dtd"
   xmlns:inkscape="http://www.inkscape.org/namespaces/inkscape"
   id="svg2"
   height="16"
   width="16"
   version="1.1"
   viewBox="0 0 16 16"
   inkscape:version="0.91 r13725"
   sodipodi:docname="baka-mplayer.svg">
  <defs
     id="defs12" />
  <sodipodi:namedview
     pagecolor="#ffffff"
     bordercolor="#666666"
     borderopacity="1"
     objecttolerance="10"
     gridtolerance="10"
     guidetolerance="10"
     inkscape:pageopacity="0"
     inkscape:pageshadow="2"
     inkscape:window-width="1600"
     inkscape:window-height="847"
     id="namedview10"
     showgrid="false"
     inkscape:zoom="1"
     inkscape:cx="-11.728814"
     inkscape:cy="16"
     inkscape:window-x="0"
     inkscape:window-y="0"
     inkscape:window-maximized="1"
     inkscape:current-layer="svg2" />
  <metadata
     id="metadata41">
    <rdf:RDF>
      <cc:Work
         rdf:about="">
        <dc:format>image/svg+xml</dc:format>
        <dc:type
           rdf:resource="http://purl.org/dc/dcmitype/StillImage" />
        <dc:title></dc:title>
      </cc:Work>
    </rdf:RDF>
  </metadata>
  <path
     style="fill:#4d4d4d;fill-rule:evenodd"
     inkscape:connector-curvature="0"
     id="path37"
     d="M 0.64,0.1262931 C 0,0.7790931 0,3.9034359 0,5.8817216 0,13.062864 4.16,16.000007 8,16.000007 c 3.84,0 8,-2.937657 8,-10.1182854 C 16,3.9230359 16,0.7790931 15.36,0.1262931 14.72,-0.52650686 10.48,1.4996645 9.2,2.8052645 l -2.4,0 C 5.52,1.4996645 1.28,-0.52650686 0.64,0.1262931 Z" />
  <path
     id="path31"
     d="m 10,11.586006 c 0,0.781 -0.8953333,1.414 -2,1.414 -1.1046667,0 -2,-0.633 -2,-1.414 0,-0.78115 4,-0.78115 4,0 z"
     inkscape:connector-curvature="0"
     style="fill:#ffffff" />
  <path
     id="path4299"
     d="m 4.5,5.0000003 a 2.5,3 0 0 0 -2.5,3 A 2.5,3 0 0 0 4.5,11 2.5,3 0 0 0 7,8.0000003 a 2.5,3 0 0 0 -2.5,-3 z m 0,1 a 1.5,2 0 0 1 1.5,2 A 1.5,2 0 0 1 4.5,10 1.5,2 0 0 1 3,8.0000003 a 1.5,2 0 0 1 1.5,-2 z"
     inkscape:connector-curvature="0"
     style="fill:#ffffff;fill-rule:evenodd" />
  <path
     id="path4302"
     d="m 11.5,5.0000003 a 2.5,3 0 0 0 -2.5,3 A 2.5,3 0 0 0 11.5,11 2.5,3 0 0 0 14,8.0000003 a 2.5,3 0 0 0 -2.5,-3 z m 0,1 a 1.5,2 0 0 1 1.5,2 A 1.5,2 0 0 1 11.5,10 1.5,2 0 0 1 10,8.0000003 a 1.5,2 0 0 1 1.5,-2 z"
     inkscape:connector-curvature="0"
     style="fill:#ffffff;fill-rule:evenodd" />
</svg>
